X:469
T: Hongjun zaozaolai
N: C2088
O: China,Sichuan Bazhong
S: II, 233]
R: Shange]
M: 2/4
L: 1/16
K: C
d2A2A2Ac | d4e4 | d2c2A2c2 | c4d4 |
d2d2c2A2 | e2edc2d2 | cdA2d2c2 | G3cA2c2 | G3AG2A2 | AG2Ac4 |
c3Ac2A2 | G2G2A2A2 | d3cG2G2 | A2cdA2c2 |
z8 | G2A2c2G2 | AcA2c4 |
A2d2c2A2 | G8

@@@ Tune index: 7024
